dist/svgs/crypto-icons/icons/emc.svg

<?xml version="1.0" encoding="UTF-8" standalone="yes"?>
<svg xmlns="http://www.w3.org/2000/svg" xmlns:xlink="http://www.w3.org/1999/xlink" width="512px" height="512px" viewBox="0 0 384 384" version="1.1">
  <g id="surface1">
    <path style=" stroke:none;fill-rule:nonzero;fill:rgb(0%,0%,0%);fill-opacity:1;" d="M 285.089844 26.664062 L 96.050781 26.664062 L 0 191.8125 L 96.050781 356.957031 L 286.597656 356.957031 L 383.980469 191.246094 Z M 265.890625 320.773438 L 116.863281 320.773438 L 41.859375 191.8125 L 116.863281 62.851562 L 264.613281 62.851562 L 341.886719 191.453125 Z M 265.890625 320.773438 "/>
    <path style=" stroke:none;fill-rule:nonzero;fill:rgb(0%,0%,0%);fill-opacity:1;" d="M 121.070312 150.527344 L 175.347656 150.527344 L 175.347656 176.503906 L 121.070312 176.503906 L 121.070312 207.121094 L 205.964844 207.121094 L 205.964844 150.527344 L 231.246094 150.527344 L 231.246094 230.082031 L 121.070312 230.082031 L 121.070312 260.695312 L 261.863281 260.695312 L 261.863281 119.90625 L 121.070312 119.90625 Z M 121.070312 150.527344 "/>
  </g>
</svg>

<svg xmlns="http://www.w3.org/2000/svg" viewBox="0 0 384 384"><path d="M285.09 26.664H96.05L0 191.813l96.05 165.144h190.548l97.382-165.71zm-19.2 294.11H116.864L41.86 191.811l75.004-128.96h147.75l77.274 128.601zm0 0"/><path d="M121.07 150.527h54.278v25.977H121.07v30.617h84.895v-56.594h25.281v79.555H121.07v30.613h140.793V119.906H121.07zm0 0"/></svg>
